client/src/assets/generatedImages/other/FILE_TEXT_IMAGE.svg

<svg fill="none" viewBox="0 0 72 96" xmlns="http://www.w3.org/2000/svg"><path d="m72 29.3v60.3c0 2.24 0 3.36-.44 4.22-.38.74-1 1.36-1.74 1.74-.86.44-1.98.44-4.22.44h-59.2c-2.24 0-3.36 0-4.22-.44-.74-.38-1.36-1-1.74-1.74-.44-.86-.44-1.98-.44-4.22v-83.2c0-2.24 0-3.36.44-4.22.38-.74 1-1.36 1.74-1.74.86-.44 1.98-.44 4.22-.44h36.3c1.96 0 2.94 0 3.86.22.5.12.98.28 1.44.5v16.88c0 2.24 0 3.36.44 4.22.38.74 1 1.36 1.74 1.74.86.44 1.98.44 4.22.44h16.88c.22.46.38.94.5 1.44.22.92.22 1.9.22 3.86z" fill="#d3d6fd"/><path d="m68.26 20.26c1.38 1.38 2.06 2.06 2.56 2.88.18.28.32.56.46.86h-16.88c-2.24 0-3.36 0-4.22-.44-.74-.38-1.36-1-1.74-1.74-.44-.86-.44-1.98-.44-4.22v-16.880029c.3.14.58.28.86.459999.82.5 1.5 1.18 2.88 2.56z" fill="#939bf9"/><path clip-rule="evenodd" d="m56 40h-16v4h16zm0 12h-16v4h16zm-40 12h40v4h-40zm40 12h-40v4h40zm-30-20h-4v-12h-6v-4h16v4h-6z" fill="#5865f2" fill-rule="evenodd"/></svg>

<svg xmlns="http://www.w3.org/2000/svg" fill="none" viewBox="0 0 72 96"><path fill="#d3d6fd" d="M72 29.3v60.3c0 2.2 0 3.4-.4 4.2a4 4 0 0 1-1.8 1.8c-.8.4-2 .4-4.2.4H6.4c-2.2 0-3.4 0-4.2-.4a4 4 0 0 1-1.8-1.8c-.4-.8-.4-2-.4-4.2V6.4C0 4.2 0 3 .4 2.2A4 4 0 0 1 2.2.4C3 0 4.2 0 6.4 0h36.3c2 0 3 0 3.9.2l1.4.5v16.9c0 2.2 0 3.4.4 4.2a4 4 0 0 0 1.8 1.8c.8.4 2 .4 4.2.4h16.9l.5 1.4c.2 1 .2 2 .2 3.9z"/><path fill="#939bf9" d="M68.3 20.3c1.3 1.3 2 2 2.5 2.8l.5.9H54.4c-2.2 0-3.4 0-4.2-.4a4 4 0 0 1-1.8-1.8c-.4-.8-.4-2-.4-4.2V.7l.9.5c.8.5 1.5 1.2 2.8 2.5z"/><path fill="#5865f2" fill-rule="evenodd" d="M56 40H40v4h16zm0 12H40v4h16zM16 64h40v4H16zm40 12H16v4h40zM26 56h-4V44h-6v-4h16v4h-6z" clip-rule="evenodd"/></svg>
